healthcode/ykm/static/029ff54f704e01717fb30acf1c95ad75.svg

<svg viewBox="0 0 72 72" xmlns="http://www.w3.org/2000/svg"><path d="m32.9555556 10c.6381957 0 1.1555555.5173598 1.1555555 1.1555556v20.8c0 .6381957-.5173598 1.1555555-1.1555555 1.1555555h-20.8c-.6381958 0-1.1555556-.5173598-1.1555556-1.1555555v-20.8c0-.6381958.5173598-1.1555556 1.1555556-1.1555556zm-8.0888889 8.0888889h-4.6222223c-.6381957 0-1.1555555.5173598-1.1555555 1.1555555v4.6222223c0 .6381957.5173598 1.1555555 1.1555555 1.1555555h4.6222223c.6381957 0 1.1555555-.5173598 1.1555555-1.1555555v-4.6222223c0-.6381957-.5173598-1.1555555-1.1555555-1.1555555zm8.0888889 20.8c.6381957 0 1.1555555.5173598 1.1555555 1.1555555v20.8c0 .6381958-.5173598 1.1555556-1.1555555 1.1555556h-20.8c-.6381958 0-1.1555556-.5173598-1.1555556-1.1555556v-20.8c0-.6381957.5173598-1.1555555 1.1555556-1.1555555zm-8.0888889 8.0888889h-4.6222223c-.6381957 0-1.1555555.5173598-1.1555555 1.1555555v4.6222223c0 .6381957.5173598 1.1555555 1.1555555 1.1555555h4.6222223c.6381957 0 1.1555555-.5173598 1.1555555-1.1555555v-4.6222223c0-.6381957-.5173598-1.1555555-1.1555555-1.1555555zm36.9777777-36.9777778c.6381958 0 1.1555556.5173598 1.1555556 1.1555556v20.8c0 .6381957-.5173598 1.1555555-1.1555556 1.1555555h-20.8c-.6381957 0-1.1555555-.5173598-1.1555555-1.1555555v-20.8c0-.6381958.5173598-1.1555556 1.1555555-1.1555556zm-8.0888888 8.0888889h-4.6222223c-.6381957 0-1.1555555.5173598-1.1555555 1.1555555v4.6222223c0 .6381957.5173598 1.1555555 1.1555555 1.1555555h4.6222223c.6381957 0 1.1555555-.5173598 1.1555555-1.1555555v-4.6222223c0-.6381957-.5173598-1.1555555-1.1555555-1.1555555zm8.0888888 20.8c.6381958 0 1.1555556.5173598 1.1555556 1.1555555v20.8c0 .6381958-.5173598 1.1555556-1.1555556 1.1555556h-20.8c-.6381957 0-1.1555555-.5173598-1.1555555-1.1555556v-6.9333333c0-.6381957.5173598-1.1555555 1.1555555-1.1555555l12.7105556-.0005556.0005556-12.7105556c0-.6381957.5173598-1.1555555 1.1555555-1.1555555zm-13.8666666 0c.6381957 0 1.1555555.5173598 1.1555555 1.1555555v6.9333334c0 .6381957-.5173598 1.1555555-1.1555555 1.1555555h-6.9333334c-.6381957 0-1.1555555-.5173598-1.1555555-1.1555555v-6.9333334c0-.6381957.5173598-1.1555555 1.1555555-1.1555555z" fill="#3888ff" fill-rule="evenodd"/></svg>

<svg xmlns="http://www.w3.org/2000/svg" viewBox="0 0 72 72" class="design-iconfont">
  <path d="M32.9555556,10 C33.5937513,10 34.1111111,10.5173598 34.1111111,11.1555556 L34.1111111,31.9555556 C34.1111111,32.5937513 33.5937513,33.1111111 32.9555556,33.1111111 L12.1555556,33.1111111 C11.5173598,33.1111111 11,32.5937513 11,31.9555556 L11,11.1555556 C11,10.5173598 11.5173598,10 12.1555556,10 L32.9555556,10 Z M24.8666667,18.0888889 L20.2444444,18.0888889 C19.6062487,18.0888889 19.0888889,18.6062487 19.0888889,19.2444444 L19.0888889,19.2444444 L19.0888889,23.8666667 C19.0888889,24.5048624 19.6062487,25.0222222 20.2444444,25.0222222 L20.2444444,25.0222222 L24.8666667,25.0222222 C25.5048624,25.0222222 26.0222222,24.5048624 26.0222222,23.8666667 L26.0222222,23.8666667 L26.0222222,19.2444444 C26.0222222,18.6062487 25.5048624,18.0888889 24.8666667,18.0888889 L24.8666667,18.0888889 Z M32.9555556,38.8888889 C33.5937513,38.8888889 34.1111111,39.4062487 34.1111111,40.0444444 L34.1111111,60.8444444 C34.1111111,61.4826402 33.5937513,62 32.9555556,62 L12.1555556,62 C11.5173598,62 11,61.4826402 11,60.8444444 L11,40.0444444 C11,39.4062487 11.5173598,38.8888889 12.1555556,38.8888889 L32.9555556,38.8888889 Z M24.8666667,46.9777778 L20.2444444,46.9777778 C19.6062487,46.9777778 19.0888889,47.4951376 19.0888889,48.1333333 L19.0888889,48.1333333 L19.0888889,52.7555556 C19.0888889,53.3937513 19.6062487,53.9111111 20.2444444,53.9111111 L20.2444444,53.9111111 L24.8666667,53.9111111 C25.5048624,53.9111111 26.0222222,53.3937513 26.0222222,52.7555556 L26.0222222,52.7555556 L26.0222222,48.1333333 C26.0222222,47.4951376 25.5048624,46.9777778 24.8666667,46.9777778 L24.8666667,46.9777778 Z M61.8444444,10 C62.4826402,10 63,10.5173598 63,11.1555556 L63,31.9555556 C63,32.5937513 62.4826402,33.1111111 61.8444444,33.1111111 L41.0444444,33.1111111 C40.4062487,33.1111111 39.8888889,32.5937513 39.8888889,31.9555556 L39.8888889,11.1555556 C39.8888889,10.5173598 40.4062487,10 41.0444444,10 L61.8444444,10 Z M53.7555556,18.0888889 L49.1333333,18.0888889 C48.4951376,18.0888889 47.9777778,18.6062487 47.9777778,19.2444444 L47.9777778,19.2444444 L47.9777778,23.8666667 C47.9777778,24.5048624 48.4951376,25.0222222 49.1333333,25.0222222 L49.1333333,25.0222222 L53.7555556,25.0222222 C54.3937513,25.0222222 54.9111111,24.5048624 54.9111111,23.8666667 L54.9111111,23.8666667 L54.9111111,19.2444444 C54.9111111,18.6062487 54.3937513,18.0888889 53.7555556,18.0888889 L53.7555556,18.0888889 Z M61.8444444,38.8888889 C62.4826402,38.8888889 63,39.4062487 63,40.0444444 L63,60.8444444 C63,61.4826402 62.4826402,62 61.8444444,62 L41.0444444,62 C40.4062487,62 39.8888889,61.4826402 39.8888889,60.8444444 L39.8888889,53.9111111 C39.8888889,53.2729154 40.4062487,52.7555556 41.0444444,52.7555556 L53.755,52.755 L53.7555556,40.0444444 C53.7555556,39.4062487 54.2729154,38.8888889 54.9111111,38.8888889 L61.8444444,38.8888889 Z M47.9777778,38.8888889 C48.6159735,38.8888889 49.1333333,39.4062487 49.1333333,40.0444444 L49.1333333,46.9777778 C49.1333333,47.6159735 48.6159735,48.1333333 47.9777778,48.1333333 L41.0444444,48.1333333 C40.4062487,48.1333333 39.8888889,47.6159735 39.8888889,46.9777778 L39.8888889,40.0444444 C39.8888889,39.4062487 40.4062487,38.8888889 41.0444444,38.8888889 L47.9777778,38.8888889 Z" fill="#3888FF" fill-rule="evenodd"/>
</svg>
